X: 62
T:Peacock Rag
% Nottingham Music Database
S:Folk Camps, via EF
M:4/4
L:1/4
K:G
F/2G/2|"D"Af -f/2e/2d|"D"A2 ^GA|"G"Bg -g/2f/2e|"E7"B2 ed|"A7"ca -a/2e/2g/2e/2|
"A7"fe Bc|"D"d/2c/2d/2f/2 -"G"f/2d/2B|"A7"AF G^G|"D"Af -f/2e/2d|"D"A2 ^GA|
"G"Bg -g/2f/2e|"E7"B2 ed|"A7"ca -a/2e/2g/2e/2|"A7"fe Bc|\
"D"d/2c/2d/2f/2 -"A7"f/2c/2e|
"D"d2 a^a|"B7"bb/2^a/2 b/2a/2b|"B7"a2 gf|"E7"ee/2f/2 ^g/2b/2g/2f/2|"E7"e3d|\
"A7"ca -a/2e/2g/2e/2|
"A7"fe Bc|"D"d/2c/2d/2f/2 -"G"f/2d/2B|"A"A2 a^a|"B7"bb/2^a/2 b/2a/2b|"B7"a2 gf\
|
"E7"ee/2f/2 ^g/2b/2g/2f/2|"E7"e3d|"A7"ca -a/2e/2g/2e/2|"A7"fe Bc|\
"D"d/2c/2d/2f/2 -"A7"f/2c/2e|"D"d3||


